X: 11
T: Cynthia's Waltz
C: Jonathan Jensen
O: Baltimore, Maryland
%R: waltz
Z: Collected and edited 2014 by John Chambers <jc:trillian.mit.edu>
B: GEMS The Best of the Country Dance and Song Society Diamond Jubilee Music, Dance and Song Contest 1993 p.41
M: 3/4
L: 1/8
K: D
% - - - - - - - - - - - - - - - - - - - - - - - - -
Ad "A"|\
"D"f2fedf | "F#m"a2a2FA | "Bm"d2dcBd | "D"f4DF |\
"G"B2BAGB | "D"d2dBAF | "E7"EDB,DEF | "A7"(3BcB A2Ad |
"D"f2fedf | "F#m"a2a2FA | "Bm"d2dcBd | "D"f4DF |\
"G"B2BAGB | "D"d2AFED | "Em"B,2D2E2 | "D"D4 :|
|: DC "B"|\
"G"B,2D2E2 | "D"A2AFED | "Em"B,2D2"A"E2 | "D"F4FE |\
"D"D2E2F2 | "Bm"d2dBAF | "A"E2c2"E7"B2 | "A"A4cB |
"A7"A2c2e2 | "D"f2fedf | "Em"G2B2d2 | "A"e2ed"A7"ce |\
"D"d2dc"G"Bd | "D"B2AFED | "Em"B,2D2"A7"E2 | "D"D4 :|
% - - - - - - - - - - - - - - - - - - - - - - - - -

%%sep 3 1 530
%%sep 1 1 530
